src/epub/images/titlepage.svg

<?xml version="1.0" encoding="utf-8"?>
<svg xmlns="http://www.w3.org/2000/svg" xmlns:svg="http://www.w3.org/2000/svg" version="1.1" viewBox="0 0 1400 440">
	<title>The titlepage for the Standard Ebooks edition of The Importance of Being Earnest, by Oscar Wilde</title>
	<g aria-label="THE IMPORTANCE OF">
		<path d="M 152.61622,68.245613 H 170.9554 V 130 h 17.59064 V 68.245613 h 18.33919 V 52.807016 h -54.26901 z"/>
		<path d="m 235.81066,99.029239 h 24.88889 V 130 H 278.2902 V 52.807016 H 260.69955 V 83.590642 H 235.81066 V 52.807016 H 218.22002 V 130 h 17.59064 z"/>
		<path d="M 338.6557,52.807016 H 294.49195 V 130 H 338.6557 V 114.5614 H 312.0826 V 99.029239 h 25.45029 V 83.590642 H 312.0826 V 68.245613 h 26.5731 z"/>
		<path d="M 401.94371,52.807016 H 384.35307 V 130 h 17.59064 z"/>
		<path d="m 482.04019,130 h 17.59064 L 492.70686,52.807016 H 473.9934 L 456.8706,97.345029 439.74779,52.807016 H 421.03434 L 414.11036,130 h 17.59065 l 3.64912,-45.754387 h 0.46784 l 15.81286,45.286547 h 10.47953 l 15.81287,-45.286547 h 0.46784 z"/>
		<path d="M 511.67764,52.807016 V 130 h 17.59064 v -28.63158 h 10.5731 c 15.06433,0 26.38597,-8.888888 26.38597,-24.795322 0,-16 -11.32164,-23.766082 -26.38597,-23.766082 z m 17.59064,34.526317 V 66.842104 h 4.95907 c 6.92397,0 13.47368,2.339181 13.47368,10.292398 0,7.859649 -6.54971,10.198831 -13.47368,10.198831 z"/>
		<path d="m 575.53291,91.356724 c 0,22.549706 16.09357,40.046786 38.92398,40.046786 22.17544,0 38.83041,-17.49708 38.83041,-40.046786 0,-22.549708 -17.40351,-39.953217 -38.83041,-39.953217 -21.23977,0 -38.92398,17.403509 -38.92398,39.953217 z m 18.99415,0 c 0,-11.508772 6.36258,-23.017544 19.92983,-23.017544 13.66082,0 19.83626,11.508772 19.83626,23.017544 0,11.508776 -5.80117,23.017546 -19.83626,23.017546 -14.40936,0 -19.92983,-11.50877 -19.92983,-23.017546 z"/>
		<path d="M 666.04898,52.807016 V 130 h 17.59064 V 99.497075 L 707.21857,130 h 22.36257 l -26.5731,-31.906433 c 9.45029,-2.994152 15.81287,-10.760234 15.81287,-22.362574 0,-15.157895 -10.8538,-22.923977 -25.16959,-22.923977 z m 17.59064,34.245615 V 66.842104 h 2.05848 c 6.64328,0 14.59649,0.467836 14.59649,10.105263 0,9.637428 -7.95321,10.105264 -14.59649,10.105264 z"/>
		<path d="m 729.59724,68.245613 h 18.33918 V 130 h 17.59064 V 68.245613 h 18.33918 V 52.807016 h -54.269 z"/>
		<path d="m 829.83697,52.807016 h -16.2807 L 782.39837,130 h 18.90059 l 5.7076,-15.4386 h 29.38012 L 842.09428,130 h 18.90058 z m 0.5614,46.31579 h -17.40351 l 8.60819,-22.45614 h 0.18714 z"/>
		<path d="m 886.5051,82.093566 h 0.18713 L 917.38229,130 h 17.59065 V 52.807016 h -17.59065 v 47.906434 h -0.18713 L 886.5051,52.807016 H 868.91446 V 130 h 17.59064 z"/>
		<path d="m 989.36914,114.09357 c -17.68421,0 -25.45029,-12.35088 -25.45029,-22.736846 0,-10.292397 7.76608,-22.643275 25.45029,-22.643275 8.98246,0 15.15786,4.77193 15.15786,4.77193 l 7.4854,-14.97076 c 0,0 -8.6082,-7.111112 -25.35671,-7.111112 -21.89474,0 -41.82456,17.964913 -41.82456,40.140352 0,22.081871 20.02339,39.859651 41.82456,39.859651 16.74851,0 25.35671,-7.11111 25.35671,-7.11111 l -7.4854,-14.97076 c 0,0 -6.1754,4.77193 -15.15786,4.77193 z"/>
		<path d="m 1067.9978,52.807016 h -44.1637 V 130 h 44.1637 v -15.4386 h -26.5731 V 99.029239 h 25.4503 V 83.590642 h -25.4503 V 68.245613 h 26.5731 z"/>
		<path d="m 1110.2332,91.356724 c 0,22.549706 16.0935,40.046786 38.9239,40.046786 22.1755,0 38.8305,-17.49708 38.8305,-40.046786 0,-22.549708 -17.4036,-39.953217 -38.8305,-39.953217 -21.2397,0 -38.9239,17.403509 -38.9239,39.953217 z m 18.9941,0 c 0,-11.508772 6.3626,-23.017544 19.9298,-23.017544 13.6609,0 19.8363,11.508772 19.8363,23.017544 0,11.508776 -5.8012,23.017546 -19.8363,23.017546 -14.4093,0 -19.9298,-11.50877 -19.9298,-23.017546 z"/>
		<path d="m 1245.3809,52.807016 h -44.6316 V 130 h 17.5906 V 99.029239 h 24.9825 V 83.590642 h -24.9825 V 68.245613 h 27.041 z"/>
	</g>
	<g aria-label="BEING EARNEST">
		<path d="M 292.29897,152.80702 V 230 h 29.28655 c 16,0 25.26316,-8.79532 25.26316,-21.52047 0,-12.44444 -6.83041,-17.77778 -16.46784,-19.46199 6.54971,-3.36842 9.63743,-9.45029 9.63743,-16.5614 0,-14.69006 -10.47953,-19.64912 -23.76608,-19.64912 z m 17.59064,30.22222 v -16.65497 h 1.40351 c 7.67252,0 11.69591,2.33918 11.69591,7.85965 0,6.45614 -4.11696,8.79532 -11.69591,8.79532 z m 0,33.40351 v -18.24562 h 5.52047 c 8.32749,0 12.91228,2.52632 12.91228,9.63743 0,6.08187 -4.58479,8.60819 -12.91228,8.60819 z"/>
		<path d="M 403.77997,152.80702 H 359.61622 V 230 h 44.16375 v -15.4386 h -26.5731 v -15.53216 h 25.45029 v -15.4386 h -25.45029 v -15.34503 h 26.5731 z"/>
		<path d="M 436.48318,152.80702 H 418.89254 V 230 h 17.59064 z"/>
		<path d="m 470.35745,182.09357 h 0.18713 L 501.23464,230 h 17.59065 v -77.19298 h -17.59065 v 47.90643 h -0.18713 L 470.35745,152.80702 H 452.7668 V 230 h 17.59065 z"/>
		<path d="m 604.87062,186.77193 h -35.64913 v 13.56725 h 17.77778 c 0,9.45029 -8.32748,14.87719 -16.74854,14.87719 -10.8538,0 -19.64912,-10.66666 -19.64912,-23.76608 0,-13.38012 8.79532,-24.14035 19.64912,-24.14035 6.83041,0 12.72515,2.71345 17.21638,9.91813 l 11.50877,-12.63158 c -6.73684,-8.14035 -16.18713,-13.19298 -29.75439,-13.19298 -21.7076,0 -37.61403,17.87134 -37.61403,40.04678 0,22.08187 16.8421,39.95322 37.61403,39.95322 15.1579,0 31.4386,-8.32749 35.64913,-27.88304 z"/>
		<path d="M 692.30335,152.80702 H 648.13961 V 230 h 44.16374 v -15.4386 h -26.5731 v -15.53216 h 25.45029 v -15.4386 h -25.45029 v -15.34503 h 26.5731 z"/>
		<path d="m 747.16887,152.80702 h -16.2807 L 699.73027,230 h 18.90059 l 5.7076,-15.4386 h 29.38012 L 759.42618,230 h 18.90059 z m 0.5614,46.31579 h -17.4035 l 8.60818,-22.45614 h 0.18714 z"/>
		<path d="M 786.24636,152.80702 V 230 H 803.837 V 199.49708 L 827.41595,230 h 22.36257 l -26.5731,-31.90643 c 9.4503,-2.99416 15.81287,-10.76024 15.81287,-22.36258 0,-15.15789 -10.8538,-22.92397 -25.16959,-22.92397 z M 803.837,187.05263 V 166.8421 h 2.05848 c 6.64328,0 14.59649,0.46784 14.59649,10.10527 0,9.63742 -7.95321,10.10526 -14.59649,10.10526 z"/>
		<path d="m 875.90573,182.09357 h 0.18713 L 906.78292,230 h 17.59064 v -77.19298 h -17.59064 v 47.90643 h -0.18713 L 875.90573,152.80702 H 858.31508 V 230 h 17.59065 z"/>
		<path d="M 984.78144,152.80702 H 940.6177 V 230 h 44.16374 v -15.4386 h -26.5731 v -15.53216 h 25.45029 v -15.4386 h -25.45029 v -15.34503 h 26.5731 z"/>
		<path d="m 1028.3384,151.40351 c -12.4444,0 -25.1695,9.16959 -25.1695,23.57895 0,8.04678 5.4269,15.25146 14.69,19.83625 9.1696,4.5848 17.4035,7.11111 17.4035,12.72515 0,7.20468 -7.2982,7.57895 -11.1345,7.57895 -8.6082,0 -18.9006,-8.70176 -18.9006,-8.70176 l -8.79529,14.78363 c 0,0 10.94739,10.19883 29.00589,10.19883 15.0643,0 29.0994,-6.45614 29.0994,-24.88889 0,-10.10526 -9.4503,-17.40351 -18.0585,-21.05263 -8.7953,-3.74269 -16.0936,-6.83041 -16.0936,-11.13451 0,-4.21052 3.1813,-6.92397 9.1696,-6.92397 7.9532,0 15.6258,5.33333 15.6258,5.33333 l 7.1111,-14.03509 c 0,0 -9.9182,-7.29824 -23.9533,-7.29824 z"/>
		<path d="m 1058.3253,168.24561 h 18.3392 V 230 h 17.5906 v -61.75439 h 18.3392 v -15.43859 h -54.269 z"/>
	</g>
	<g aria-label="OSCAR WILDE">
		<path d="m 421.47423,361.01754 c 0,16.91228 12.07018,30.03509 29.19299,30.03509 16.63158,0 29.1228,-13.12281 29.1228,-30.03509 0,-16.91228 -13.05263,-29.96491 -29.1228,-29.96491 -15.92983,0 -29.19299,13.05263 -29.19299,29.96491 z m 14.24562,0 c 0,-8.63157 4.77193,-17.26315 14.94737,-17.26315 10.24561,0 14.87719,8.63158 14.87719,17.26315 0,8.63158 -4.35088,17.26316 -14.87719,17.26316 -10.80702,0 -14.94737,-8.63158 -14.94737,-17.26316 z"/>
		<path d="m 511.94463,331.05263 c -9.33333,0 -18.87719,6.8772 -18.87719,17.68421 0,6.03509 4.07017,11.4386 11.01754,14.8772 6.8772,3.43859 13.05263,5.33333 13.05263,9.54385 0,5.40351 -5.47368,5.68422 -8.35087,5.68422 -6.45614,0 -14.17544,-6.52632 -14.17544,-6.52632 l -6.59649,11.08772 c 0,0 8.21052,7.64912 21.75438,7.64912 11.29825,0 21.82456,-4.8421 21.82456,-18.66666 0,-7.57895 -7.08771,-13.05264 -13.54385,-15.78948 -6.5965,-2.80702 -12.07018,-5.12281 -12.07018,-8.35088 0,-3.15789 2.38596,-5.19298 6.87719,-5.19298 5.96492,0 11.7193,4 11.7193,4 l 5.33333,-10.52631 c 0,0 -7.43859,-5.47369 -17.96491,-5.47369 z"/>
		<path d="m 571.37445,378.07018 c -13.26316,0 -19.08772,-9.26316 -19.08772,-17.05264 0,-7.71929 5.82456,-16.98245 19.08772,-16.98245 6.73684,0 11.36842,3.57895 11.36842,3.57895 l 5.61403,-11.22807 c 0,0 -6.45614,-5.33334 -19.01754,-5.33334 -16.42105,0 -31.36842,13.47369 -31.36842,30.10527 0,16.5614 15.01754,29.89473 31.36842,29.89473 12.5614,0 19.01754,-5.33333 19.01754,-5.33333 l -5.61403,-11.22807 c 0,0 -4.63158,3.57895 -11.36842,3.57895 z"/>
		<path d="M 627.87664,332.10526 H 615.66611 L 592.29769,390 h 14.17544 l 4.2807,-11.57895 h 22.03509 L 637.06962,390 h 14.17544 z m 0.42105,34.73685 H 615.24506 L 621.7012,350 h 0.14035 z"/>
		<path d="M 658.43476,332.10526 V 390 h 13.19298 V 367.12281 L 689.31195,390 h 16.77193 l -19.92983,-23.92982 c 7.08772,-2.24562 11.85965,-8.07018 11.85965,-16.77193 0,-11.36842 -8.14035,-17.19299 -18.87719,-17.19299 z m 13.19298,25.68421 v -15.15789 h 1.54386 c 4.98245,0 10.94737,0.35088 10.94737,7.57895 0,7.22807 -5.96492,7.57894 -10.94737,7.57894 z"/>
		<path d="m 776.31523,390 h 14.5965 l 16.49122,-57.89474 h -14.59649 l -9.89473,39.7193 h -0.35088 l -10.52632,-39.7193 h -9.96491 l -10.52632,39.7193 h -0.35087 l -9.89474,-39.7193 H 726.63102 L 743.12225,390 h 14.66667 l 9.26316,-32.49123 z"/>
		<path d="M 828.76041,332.10526 H 815.56743 V 390 h 13.19298 z"/>
		<path d="M 855.41611,332.10526 H 842.22313 V 390 h 33.12281 v -11.57895 h -19.92983 z"/>
		<path d="M 886.83388,332.10526 V 390 h 16.77193 c 15.92982,0 29.19298,-12.07018 29.19298,-28.98246 0,-16.8421 -13.33333,-28.91228 -29.19298,-28.91228 z m 13.19298,46.10527 v -34.31579 h 2.03509 c 9.82456,0 16.49123,7.50877 16.49123,17.19298 -0.0702,9.68421 -6.73684,17.12281 -16.49123,17.12281 z"/>
		<path d="M 976.76592,332.10526 H 943.64311 V 390 h 33.12281 V 378.42105 H 956.8361 v -11.64912 h 19.08772 V 355.19298 H 956.8361 v -11.50877 h 19.92982 z"/>
	</g>
</svg>

<?xml version="1.0" encoding="utf-8"?>
<svg xmlns="http://www.w3.org/2000/svg" xmlns:svg="http://www.w3.org/2000/svg" version="1.1" viewBox="0 0 1400 440">
	<title>The titlepage for the Standard Ebooks edition of The Importance of Being Earnest, by Oscar Wilde</title>
	<g>
		<path d="m 152.61622,68.245613 18.33918,0 0,61.754387 17.59064,0 0,-61.754387 18.33919,0 0,-15.438597 -54.26901,0 0,15.438597 z"/>
		<path d="m 235.81066,99.029239 24.88889,0 0,30.970761 17.59065,0 0,-77.192984 -17.59065,0 0,30.783626 -24.88889,0 0,-30.783626 -17.59064,0 0,77.192984 17.59064,0 0,-30.970761 z"/>
		<path d="m 338.6557,52.807016 -44.16375,0 0,77.192984 44.16375,0 0,-15.4386 -26.5731,0 0,-15.532161 25.45029,0 0,-15.438597 -25.45029,0 0,-15.345029 26.5731,0 0,-15.438597 z"/>
		<path d="m 401.94371,52.807016 -17.59064,0 0,77.192984 17.59064,0 0,-77.192984 z"/>
		<path d="m 482.04019,130 17.59064,0 -6.92397,-77.192984 -18.71346,0 -17.1228,44.538013 -17.12281,-44.538013 -18.71345,0 L 414.11036,130 l 17.59065,0 3.64912,-45.754387 0.46784,0 15.81286,45.286547 10.47953,0 15.81287,-45.286547 0.46784,0 L 482.04019,130 Z"/>
		<path d="m 511.67764,52.807016 0,77.192984 17.59064,0 0,-28.63158 10.5731,0 c 15.06433,0 26.38597,-8.888888 26.38597,-24.795322 0,-16 -11.32164,-23.766082 -26.38597,-23.766082 l -28.16374,0 z m 17.59064,34.526317 0,-20.491229 4.95907,0 c 6.92397,0 13.47368,2.339181 13.47368,10.292398 0,7.859649 -6.54971,10.198831 -13.47368,10.198831 l -4.95907,0 z"/>
		<path d="m 575.53291,91.356724 c 0,22.549706 16.09357,40.046786 38.92398,40.046786 22.17544,0 38.83041,-17.49708 38.83041,-40.046786 0,-22.549708 -17.40351,-39.953217 -38.83041,-39.953217 -21.23977,0 -38.92398,17.403509 -38.92398,39.953217 z m 18.99415,0 c 0,-11.508772 6.36258,-23.017544 19.92983,-23.017544 13.66082,0 19.83626,11.508772 19.83626,23.017544 0,11.508776 -5.80117,23.017546 -19.83626,23.017546 -14.40936,0 -19.92983,-11.50877 -19.92983,-23.017546 z"/>
		<path d="m 666.04898,52.807016 0,77.192984 17.59064,0 0,-30.502925 L 707.21857,130 l 22.36257,0 -26.5731,-31.906433 c 9.45029,-2.994152 15.81287,-10.760234 15.81287,-22.362574 0,-15.157895 -10.8538,-22.923977 -25.16959,-22.923977 l -27.60234,0 z m 17.59064,34.245615 0,-20.210527 2.05848,0 c 6.64328,0 14.59649,0.467836 14.59649,10.105263 0,9.637428 -7.95321,10.105264 -14.59649,10.105264 l -2.05848,0 z"/>
		<path d="m 729.59724,68.245613 18.33918,0 0,61.754387 17.59064,0 0,-61.754387 18.33918,0 0,-15.438597 -54.269,0 0,15.438597 z"/>
		<path d="m 829.83697,52.807016 -16.2807,0 L 782.39837,130 l 18.90059,0 5.7076,-15.4386 29.38012,0 5.7076,15.4386 18.90058,0 -31.15789,-77.192984 z m 0.5614,46.31579 -17.40351,0 8.60819,-22.45614 0.18714,0 8.60818,22.45614 z"/>
		<path d="m 886.5051,82.093566 0.18713,0 L 917.38229,130 l 17.59065,0 0,-77.192984 -17.59065,0 0,47.906434 -0.18713,0 -30.69006,-47.906434 -17.59064,0 0,77.192984 17.59064,0 0,-47.906434 z"/>
		<path d="m 989.36914,114.09357 c -17.68421,0 -25.45029,-12.35088 -25.45029,-22.736846 0,-10.292397 7.76608,-22.643275 25.45029,-22.643275 8.98246,0 15.15786,4.77193 15.15786,4.77193 l 7.4854,-14.97076 c 0,0 -8.6082,-7.111112 -25.35671,-7.111112 -21.89474,0 -41.82456,17.964913 -41.82456,40.140352 0,22.081871 20.02339,39.859651 41.82456,39.859651 16.74851,0 25.35671,-7.11111 25.35671,-7.11111 l -7.4854,-14.97076 c 0,0 -6.1754,4.77193 -15.15786,4.77193 z"/>
		<path d="m 1067.9978,52.807016 -44.1637,0 0,77.192984 44.1637,0 0,-15.4386 -26.5731,0 0,-15.532161 25.4503,0 0,-15.438597 -25.4503,0 0,-15.345029 26.5731,0 0,-15.438597 z"/>
		<path d="m 1110.2332,91.356724 c 0,22.549706 16.0935,40.046786 38.9239,40.046786 22.1755,0 38.8305,-17.49708 38.8305,-40.046786 0,-22.549708 -17.4036,-39.953217 -38.8305,-39.953217 -21.2397,0 -38.9239,17.403509 -38.9239,39.953217 z m 18.9941,0 c 0,-11.508772 6.3626,-23.017544 19.9298,-23.017544 13.6609,0 19.8363,11.508772 19.8363,23.017544 0,11.508776 -5.8012,23.017546 -19.8363,23.017546 -14.4093,0 -19.9298,-11.50877 -19.9298,-23.017546 z"/>
		<path d="m 1245.3809,52.807016 -44.6316,0 0,77.192984 17.5906,0 0,-30.970761 24.9825,0 0,-15.438597 -24.9825,0 0,-15.345029 27.041,0 0,-15.438597 z"/>
	</g>
	<g>
		<path d="m 292.29897,152.80702 0,77.19298 29.28655,0 c 16,0 25.26316,-8.79532 25.26316,-21.52047 0,-12.44444 -6.83041,-17.77778 -16.46784,-19.46199 6.54971,-3.36842 9.63743,-9.45029 9.63743,-16.5614 0,-14.69006 -10.47953,-19.64912 -23.76608,-19.64912 l -23.95322,0 z m 17.59064,30.22222 0,-16.65497 1.40351,0 c 7.67252,0 11.69591,2.33918 11.69591,7.85965 0,6.45614 -4.11696,8.79532 -11.69591,8.79532 l -1.40351,0 z m 0,33.40351 0,-18.24562 5.52047,0 c 8.32749,0 12.91228,2.52632 12.91228,9.63743 0,6.08187 -4.58479,8.60819 -12.91228,8.60819 l -5.52047,0 z"/>
		<path d="m 403.77997,152.80702 -44.16375,0 0,77.19298 44.16375,0 0,-15.4386 -26.5731,0 0,-15.53216 25.45029,0 0,-15.4386 -25.45029,0 0,-15.34503 26.5731,0 0,-15.43859 z"/>
		<path d="m 436.48318,152.80702 -17.59064,0 0,77.19298 17.59064,0 0,-77.19298 z"/>
		<path d="m 470.35745,182.09357 0.18713,0 30.69006,47.90643 17.59065,0 0,-77.19298 -17.59065,0 0,47.90643 -0.18713,0 -30.69006,-47.90643 -17.59065,0 0,77.19298 17.59065,0 0,-47.90643 z"/>
		<path d="m 604.87062,186.77193 -35.64913,0 0,13.56725 17.77778,0 c 0,9.45029 -8.32748,14.87719 -16.74854,14.87719 -10.8538,0 -19.64912,-10.66666 -19.64912,-23.76608 0,-13.38012 8.79532,-24.14035 19.64912,-24.14035 6.83041,0 12.72515,2.71345 17.21638,9.91813 l 11.50877,-12.63158 c -6.73684,-8.14035 -16.18713,-13.19298 -29.75439,-13.19298 -21.7076,0 -37.61403,17.87134 -37.61403,40.04678 0,22.08187 16.8421,39.95322 37.61403,39.95322 15.1579,0 31.4386,-8.32749 35.64913,-27.88304 l 0,-16.74854 z"/>
		<path d="m 692.30335,152.80702 -44.16374,0 0,77.19298 44.16374,0 0,-15.4386 -26.5731,0 0,-15.53216 25.45029,0 0,-15.4386 -25.45029,0 0,-15.34503 26.5731,0 0,-15.43859 z"/>
		<path d="m 747.16887,152.80702 -16.2807,0 -31.1579,77.19298 18.90059,0 5.7076,-15.4386 29.38012,0 5.7076,15.4386 18.90059,0 -31.1579,-77.19298 z m 0.5614,46.31579 -17.4035,0 8.60818,-22.45614 0.18714,0 8.60818,22.45614 z"/>
		<path d="m 786.24636,152.80702 0,77.19298 17.59064,0 0,-30.50292 23.57895,30.50292 22.36257,0 -26.5731,-31.90643 c 9.4503,-2.99416 15.81287,-10.76024 15.81287,-22.36258 0,-15.15789 -10.8538,-22.92397 -25.16959,-22.92397 l -27.60234,0 z m 17.59064,34.24561 0,-20.21053 2.05848,0 c 6.64328,0 14.59649,0.46784 14.59649,10.10527 0,9.63742 -7.95321,10.10526 -14.59649,10.10526 l -2.05848,0 z"/>
		<path d="m 875.90573,182.09357 0.18713,0 30.69006,47.90643 17.59064,0 0,-77.19298 -17.59064,0 0,47.90643 -0.18713,0 -30.69006,-47.90643 -17.59065,0 0,77.19298 17.59065,0 0,-47.90643 z"/>
		<path d="m 984.78144,152.80702 -44.16374,0 0,77.19298 44.16374,0 0,-15.4386 -26.5731,0 0,-15.53216 25.45029,0 0,-15.4386 -25.45029,0 0,-15.34503 26.5731,0 0,-15.43859 z"/>
		<path d="m 1028.3384,151.40351 c -12.4444,0 -25.1695,9.16959 -25.1695,23.57895 0,8.04678 5.4269,15.25146 14.69,19.83625 9.1696,4.5848 17.4035,7.11111 17.4035,12.72515 0,7.20468 -7.2982,7.57895 -11.1345,7.57895 -8.6082,0 -18.9006,-8.70176 -18.9006,-8.70176 l -8.79529,14.78363 c 0,0 10.94739,10.19883 29.00589,10.19883 15.0643,0 29.0994,-6.45614 29.0994,-24.88889 0,-10.10526 -9.4503,-17.40351 -18.0585,-21.05263 -8.7953,-3.74269 -16.0936,-6.83041 -16.0936,-11.13451 0,-4.21052 3.1813,-6.92397 9.1696,-6.92397 7.9532,0 15.6258,5.33333 15.6258,5.33333 l 7.1111,-14.03509 c 0,0 -9.9182,-7.29824 -23.9533,-7.29824 z"/>
		<path d="m 1058.3253,168.24561 18.3392,0 0,61.75439 17.5906,0 0,-61.75439 18.3392,0 0,-15.43859 -54.269,0 0,15.43859 z"/>
	</g>
	<g>
		<path d="m 421.47423,361.01754 c 0,16.91228 12.07018,30.03509 29.19299,30.03509 16.63158,0 29.1228,-13.12281 29.1228,-30.03509 0,-16.91228 -13.05263,-29.96491 -29.1228,-29.96491 -15.92983,0 -29.19299,13.05263 -29.19299,29.96491 z m 14.24562,0 c 0,-8.63157 4.77193,-17.26315 14.94737,-17.26315 10.24561,0 14.87719,8.63158 14.87719,17.26315 0,8.63158 -4.35088,17.26316 -14.87719,17.26316 -10.80702,0 -14.94737,-8.63158 -14.94737,-17.26316 z"/>
		<path d="m 511.94463,331.05263 c -9.33333,0 -18.87719,6.8772 -18.87719,17.68421 0,6.03509 4.07017,11.4386 11.01754,14.8772 6.8772,3.43859 13.05263,5.33333 13.05263,9.54385 0,5.40351 -5.47368,5.68422 -8.35087,5.68422 -6.45614,0 -14.17544,-6.52632 -14.17544,-6.52632 l -6.59649,11.08772 c 0,0 8.21052,7.64912 21.75438,7.64912 11.29825,0 21.82456,-4.8421 21.82456,-18.66666 0,-7.57895 -7.08771,-13.05264 -13.54385,-15.78948 -6.5965,-2.80702 -12.07018,-5.12281 -12.07018,-8.35088 0,-3.15789 2.38596,-5.19298 6.87719,-5.19298 5.96492,0 11.7193,4 11.7193,4 l 5.33333,-10.52631 c 0,0 -7.43859,-5.47369 -17.96491,-5.47369 z"/>
		<path d="m 571.37445,378.07018 c -13.26316,0 -19.08772,-9.26316 -19.08772,-17.05264 0,-7.71929 5.82456,-16.98245 19.08772,-16.98245 6.73684,0 11.36842,3.57895 11.36842,3.57895 l 5.61403,-11.22807 c 0,0 -6.45614,-5.33334 -19.01754,-5.33334 -16.42105,0 -31.36842,13.47369 -31.36842,30.10527 0,16.5614 15.01754,29.89473 31.36842,29.89473 12.5614,0 19.01754,-5.33333 19.01754,-5.33333 l -5.61403,-11.22807 c 0,0 -4.63158,3.57895 -11.36842,3.57895 z"/>
		<path d="m 627.87664,332.10526 -12.21053,0 L 592.29769,390 l 14.17544,0 4.2807,-11.57895 22.03509,0 4.2807,11.57895 14.17544,0 -23.36842,-57.89474 z m 0.42105,34.73685 -13.05263,0 L 621.7012,350 l 0.14035,0 6.45614,16.84211 z"/>
		<path d="m 658.43476,332.10526 0,57.89474 13.19298,0 0,-22.87719 17.68421,22.87719 16.77193,0 -19.92983,-23.92982 c 7.08772,-2.24562 11.85965,-8.07018 11.85965,-16.77193 0,-11.36842 -8.14035,-17.19299 -18.87719,-17.19299 l -20.70175,0 z m 13.19298,25.68421 0,-15.15789 1.54386,0 c 4.98245,0 10.94737,0.35088 10.94737,7.57895 0,7.22807 -5.96492,7.57894 -10.94737,7.57894 l -1.54386,0 z"/>
		<path d="m 776.31523,390 14.5965,0 16.49122,-57.89474 -14.59649,0 -9.89473,39.7193 -0.35088,0 -10.52632,-39.7193 -9.96491,0 -10.52632,39.7193 -0.35087,0 -9.89474,-39.7193 -14.66667,0 16.49123,57.89474 14.66667,0 9.26316,-32.49123 L 776.31523,390 Z"/>
		<path d="m 828.76041,332.10526 -13.19298,0 0,57.89474 13.19298,0 0,-57.89474 z"/>
		<path d="m 855.41611,332.10526 -13.19298,0 0,57.89474 33.12281,0 0,-11.57895 -19.92983,0 0,-46.31579 z"/>
		<path d="m 886.83388,332.10526 0,57.89474 16.77193,0 c 15.92982,0 29.19298,-12.07018 29.19298,-28.98246 0,-16.8421 -13.33333,-28.91228 -29.19298,-28.91228 l -16.77193,0 z m 13.19298,46.10527 0,-34.31579 2.03509,0 c 9.82456,0 16.49123,7.50877 16.49123,17.19298 -0.0702,9.68421 -6.73684,17.12281 -16.49123,17.12281 l -2.03509,0 z"/>
		<path d="m 976.76592,332.10526 -33.12281,0 0,57.89474 33.12281,0 0,-11.57895 -19.92982,0 0,-11.64912 19.08772,0 0,-11.57895 -19.08772,0 0,-11.50877 19.92982,0 0,-11.57895 z"/>
	</g>
</svg>
